packages/katcn/src/icons/svg/coin.svg

<svg xmlns="http://www.w3.org/2000/svg" fill="none" viewBox="0 0 24 24"><path fill="#000" d="M12 2C6.5 2 2 6.5 2 12s4.5 10 10 10 10-4.5 10-10S17.5 2 12 2m0 18c-4.4 0-8-3.6-8-8s3.6-8 8-8 8 3.6 8 8-3.6 8-8 8"/><path fill="#000" d="M13.3 11h-2.6c-.5 0-.9-.4-.9-.9s.4-.9.9-.9h3.7c.6 0 1-.4 1-1s-.4-1-1-1H13v-.9c0-.6-.4-1-1-1s-1 .4-1 1v.9h-.3c-1.6 0-2.9 1.3-2.9 2.9S9.1 13 10.7 13h2.5c.5 0 .9.4.9.9s-.4.9-.9.9H9.5c-.6 0-1 .4-1 1s.4 1 1 1H11v.9c0 .6.4 1 1 1s1-.4 1-1v-.9h.3c1.6 0 2.9-1.3 2.9-2.9S14.9 11 13.3 11"/></svg>

<svg width="24" height="24" viewBox="0 0 24 24" fill="none" xmlns="http://www.w3.org/2000/svg">
<path d="M12 2C6.5 2 2 6.5 2 12C2 17.5 6.5 22 12 22C17.5 22 22 17.5 22 12C22 6.5 17.5 2 12 2ZM12 20C7.6 20 4 16.4 4 12C4 7.6 7.6 4 12 4C16.4 4 20 7.6 20 12C20 16.4 16.4 20 12 20Z" fill="black"/>
<path d="M13.3 11H10.7C10.2 11 9.79999 10.6 9.79999 10.1C9.79999 9.6 10.2 9.2 10.7 9.2H14.4C15 9.2 15.4 8.8 15.4 8.2C15.4 7.6 15 7.2 14.4 7.2H13V6.3C13 5.7 12.6 5.3 12 5.3C11.4 5.3 11 5.7 11 6.3V7.2H10.7C9.09999 7.2 7.79999 8.5 7.79999 10.1C7.79999 11.7 9.09999 13 10.7 13H13.2C13.7 13 14.1 13.4 14.1 13.9C14.1 14.4 13.7 14.8 13.2 14.8H9.49999C8.89999 14.8 8.49999 15.2 8.49999 15.8C8.49999 16.4 8.89999 16.8 9.49999 16.8H11V17.7C11 18.3 11.4 18.7 12 18.7C12.6 18.7 13 18.3 13 17.7V16.8H13.3C14.9 16.8 16.2 15.5 16.2 13.9C16.2 12.3 14.9 11 13.3 11Z" fill="black"/>
</svg>
